Ironsworn-Starforged/src/app/img/icons/asset-vanguard.svg

<svg xmlns="http://www.w3.org/2000/svg" xmlns:svg="http://www.w3.org/2000/svg" fill-rule="evenodd" stroke-miterlimit="10" clip-rule="evenodd" viewBox="0 0 64.353996 74.309402" xml:space="preserve"><g transform="translate(-3.8229 -3.3453003)"><clipPath id="a"><path d="M4.823 22.5v36L36 76.5l31.177-18v-36L36 4.5Z" clip-rule="nonzero"/></clipPath><g fill-rule="nonzero" clip-path="url(#a)"><path fill="#40834f" d="M67.1769 58.4997v-36l-31.177-18-31.177 18v36l31.177 18z" opacity=".3"/><path fill="#fff" stroke="#231f20" d="M34.1977 87.5747v-70.327c0-.994.806-1.8 1.8-1.8s1.8.806 1.8 1.8v70.327c0 .994-.806 1.8-1.8 1.8s-1.8-.806-1.8-1.8z"/><path fill="#fff" stroke="#231f20" d="M56.8593 26.1945h-41.723c-.994 0-1.8-.806-1.8-1.8s.806-1.8 1.8-1.8h41.723c.994 0 1.8.806 1.8 1.8s-.806 1.8-1.8 1.8Z"/><path fill="#fff" stroke="#231f20" stroke-linecap="round" stroke-linejoin="round" stroke-width="2" d="m52.9648 58.9998-16.967 9.761-16.967-9.761v-37.781h33.934Z"/><path fill="#fff" stroke="#231f20" stroke-linecap="round" stroke-linejoin="round" d="m48.1891 55.7268-12.191 7.481-12.192-7.481v-34.508h24.383Z"/></g></g><path fill="none" stroke="#231f20" stroke-width="2" d="M63.354 55.1546997v-36l-31.177-18-31.177 18v36l31.177 18z"/></svg>

<svg viewBox="0 0 300 338" xmlns="http://www.w3.org/2000/svg" fill-rule="evenodd" clip-rule="evenodd" stroke-miterlimit="10"><g transform="translate(0 .12) scale(4.16667)"><path fill="none" d="M0 0h72v81H0z"/><clipPath id="prefix__a"><path d="M0 0h72v81H0z"/></clipPath><g clip-path="url(#prefix__a)"><clipPath id="prefix__b"><path d="M4.823 22.5v36L36 76.5l31.177-18v-36L36 4.5l-31.177 18z" clip-rule="nonzero"/></clipPath><g clip-path="url(#prefix__b)"><path d="M67.177 58.5v-36L36 4.5l-31.177 18v36L36 76.5l31.177-18z" fill="#40834f" fill-rule="nonzero" opacity=".3"/><path d="M34.198 87.575V17.248a1.8 1.8 0 013.6 0v70.327a1.8 1.8 0 01-3.6 0z" fill="#fff" fill-rule="nonzero" stroke="#231f20"/><path d="M56.86 26.195H15.135a1.8 1.8 0 010-3.6H56.86a1.8 1.8 0 010 3.6z" fill="#fff" fill-rule="nonzero" stroke="#231f20"/><path d="M52.965 59l-16.967 9.76L19.03 59V21.219h33.934v37.78z" fill="#fff" fill-rule="nonzero" stroke="#231f20" stroke-width="2" stroke-linecap="round" stroke-linejoin="round"/><path d="M48.19 55.727l-12.192 7.48-12.192-7.48V21.219H48.19v34.508z" fill="#fff" fill-rule="nonzero" stroke="#231f20" stroke-linecap="round" stroke-linejoin="round"/></g><g><path d="M67.177 58.5v-36L36 4.5l-31.177 18v36L36 76.5l31.177-18z" fill="none" stroke="#231f20" stroke-width="2"/></g></g></g></svg>
